src/app/assets/icons/bug.svg

<svg width="24" height="24" viewBox="0 0 24 24" fill="none" xmlns="http://www.w3.org/2000/svg">
<path d="M12.0312 18.8047C13.1313 18.8047 14.0729 18.413 14.8562 17.6297C15.6396 16.8464 16.0312 15.9047 16.0312 14.8047V10.8047C16.0312 9.70469 15.6396 8.76302 14.8562 7.97969C14.0729 7.19635 13.1313 6.80469 12.0312 6.80469C10.9313 6.80469 9.98958 7.19635 9.20625 7.97969C8.42292 8.76302 8.03125 9.70469 8.03125 10.8047V14.8047C8.03125 15.9047 8.42292 16.8464 9.20625 17.6297C9.98958 18.413 10.9313 18.8047 12.0312 18.8047ZM10.0312 15.8047H14.0312V13.8047H10.0312V15.8047ZM10.0312 11.8047H14.0312V9.80469H10.0312V11.8047ZM12.0312 20.8047C10.9479 20.8047 9.94375 20.538 9.01875 20.0047C8.09375 19.4714 7.36458 18.738 6.83125 17.8047H4.03125V15.8047H6.13125C6.08125 15.4714 6.05208 15.138 6.04375 14.8047C6.03542 14.4714 6.03125 14.138 6.03125 13.8047H4.03125V11.8047H6.03125C6.03125 11.4714 6.03542 11.138 6.04375 10.8047C6.05208 10.4714 6.08125 10.138 6.13125 9.80469H4.03125V7.80469H6.83125C7.06458 7.42135 7.32708 7.06302 7.61875 6.72969C7.91042 6.39635 8.24792 6.10469 8.63125 5.85469L7.03125 4.20469L8.43125 2.80469L10.5813 4.95469C11.0479 4.80469 11.5229 4.72969 12.0062 4.72969C12.4896 4.72969 12.9646 4.80469 13.4313 4.95469L15.6313 2.80469L17.0312 4.20469L15.3813 5.85469C15.7646 6.10469 16.1104 6.39219 16.4187 6.71719C16.7271 7.04219 16.9979 7.40469 17.2312 7.80469H20.0312V9.80469H17.9313C17.9813 10.138 18.0104 10.4714 18.0188 10.8047C18.0271 11.138 18.0312 11.4714 18.0312 11.8047H20.0312V13.8047H18.0312C18.0312 14.138 18.0271 14.4714 18.0188 14.8047C18.0104 15.138 17.9813 15.4714 17.9313 15.8047H20.0312V17.8047H17.2312C16.6979 18.738 15.9688 19.4714 15.0437 20.0047C14.1187 20.538 13.1146 20.8047 12.0312 20.8047Z" fill="currentColor"/>
</svg>

<svg xmlns="http://www.w3.org/2000/svg" width="24" height="24" fill="none"><path fill="currentColor" d="M12.031 18.805q1.65 0 2.825-1.175t1.175-2.825v-4q0-1.65-1.175-2.825t-2.825-1.175T9.206 7.98t-1.175 2.825v4q0 1.65 1.175 2.825t2.825 1.175m-2-3h4v-2h-4zm0-4h4v-2h-4zm2 9a5.93 5.93 0 0 1-3.012-.8 5.84 5.84 0 0 1-2.188-2.2h-2.8v-2h2.1a8 8 0 0 1-.087-1 40 40 0 0 1-.013-1h-2v-2h2q0-.5.013-1a8 8 0 0 1 .087-1h-2.1v-2h2.8A8 8 0 0 1 7.62 6.73q.437-.5 1.012-.875l-1.6-1.65 1.4-1.4 2.15 2.15a4.63 4.63 0 0 1 2.85 0l2.2-2.15 1.4 1.4-1.65 1.65a5.76 5.76 0 0 1 1.85 1.95h2.8v2h-2.1q.075.5.088 1t.012 1h2v2h-2q0 .5-.012 1a8 8 0 0 1-.088 1h2.1v2h-2.8a5.84 5.84 0 0 1-2.187 2.2q-1.388.8-3.013.8"/></svg>
